build/images/clients/vilcek.svg

<?xml version="1.0" encoding="UTF-8"?>
<svg width="571px" height="121px" viewBox="0 0 571 121" version="1.1" xmlns="http://www.w3.org/2000/svg" xmlns:xlink="http://www.w3.org/1999/xlink">
    <title>vilcek</title>
    <g id="Page-1" stroke="none" stroke-width="1" fill="none" fill-rule="evenodd">
        <g id="vilcek" fill="#FFFFFF" fill-rule="nonzero">
            <path d="M60.3460013,0 L63.7611683,2.24522083 L31.8293566,51.6572182 L0,2.24522083 L3.41516702,0 L31.8293566,44.0988794 L60.3460013,0 Z M80.8370034,51.1773237 L84.9352038,51.1773237 L84.9352038,0.805537245 L80.8370034,0.805537245 L80.8370034,51.1773237 Z M114.220261,0.805537245 L110.139136,0.805537245 L110.139136,51.1773237 L135.752889,51.1773237 L135.752889,46.9953856 L114.408095,46.9953856 L114.408095,0.805537245 L114.220261,0.805537245 Z M207.351866,4.98747528 L233.341287,4.98747528 L233.341287,0.805537245 L207.351866,0.805537245 L207.351866,4.98747528 Z M294.626459,0 L259.808831,23.9947264 L259.808831,0.805537245 L255.710631,0.805537245 L255.710631,51.1773237 L259.808831,51.1773237 L259.808831,28.0052736 L294.626459,52 L297,48.4693474 L264.214397,25.9314436 L297,3.39353988 L294.626459,0 Z M207.351866,28.1595254 L233.341287,28.1595254 L233.341287,23.9775873 L207.351866,23.9775873 L207.351866,28.1595254 Z M207.351866,51.1773237 L233.341287,51.1773237 L233.341287,46.9953856 L207.351866,46.9953856 L207.351866,51.1773237 Z M184.419019,44.0988794 C177.906713,48.4677948 169.511285,48.8293126 162.650105,45.0362762 C155.788925,41.2432398 151.606069,33.9281237 151.804174,26.0685564 C151.709221,14.2949865 161.112061,4.65814317 172.841603,4.50758075 C176.971892,4.45274995 181.017252,5.68642437 184.419019,8.03823336 L185.375266,8.68951879 L187.578049,5.14172709 L186.638878,4.50758075 C182.596934,1.78964716 177.843389,0.334444973 172.97821,0.325642716 C158.964932,0.485647019 147.707664,11.9683393 147.773983,26.0342782 C147.716995,40.0964061 158.968879,51.5736065 172.97821,51.7429136 C177.842166,51.7259535 182.593413,50.2714549 186.638878,47.5609756 L187.578049,46.9096902 L185.375266,43.3618985 L184.419019,44.0988794 Z" id="Shape"></path>
            <path d="M331.956037,68 L358.497451,119.055519 L354.86727,121 L331.956037,77.0512987 L309.010556,121 L305.380375,119.055519 L331.956037,68 Z M427.539375,120.191234 L431.649013,120.191234 L431.649013,69.6175325 L427.539375,69.6175325 L427.539375,120.191234 Z M362.761201,73.8162338 L384.251185,73.8162338 L384.251185,120.277273 L388.360823,120.277273 L388.360823,73.8162338 L409.850807,73.8162338 L409.850807,69.6175325 L362.607089,69.6175325 L362.607089,73.8162338 L362.761201,73.8162338 Z M226.57806,113.394156 L186.92005,69.6175325 L183.495352,69.6175325 L183.495352,120.191234 L187.60499,120.191234 L187.60499,76.6038961 L227.091765,120.397727 L230.516464,120.397727 L230.516464,69.6175325 L226.57806,69.6175325 L226.57806,113.394156 Z M0,120.191234 L4.10963834,120.191234 L4.10963834,97.0811688 L25.9249685,97.0811688 L25.9249685,92.8824675 L4.10963834,92.8824675 L4.10963834,73.8162338 L32.3976489,73.8162338 L32.3976489,69.6175325 L0,69.6175325 L0,120.191234 Z M94.7956577,94.9818182 C94.7956577,109.009134 83.4799789,120.380519 69.5213819,120.380519 C55.5627848,120.380519 44.2471061,109.009134 44.2471061,94.9818182 C44.2471061,80.9545028 55.5627848,69.5831169 69.5213819,69.5831169 C83.4799789,69.5831169 94.7956577,80.9545028 94.7956577,94.9818182 Z M90.7031428,94.9818182 C90.9223678,87.2358435 86.935412,79.9820959 80.2942064,76.0441125 C73.6530009,72.1061291 65.4068864,72.1061291 58.7656808,76.0441125 C52.1244753,79.9820959 48.1375194,87.2358435 48.3567444,94.9818182 C48.1375194,102.727793 52.1244753,109.98154 58.7656808,113.919524 C65.4068864,117.857507 73.6530009,117.857507 80.2942064,113.919524 C86.935412,109.98154 90.9223678,102.727793 90.7031428,94.9818182 Z M503.053979,94.9818182 C503.053979,109.009134 491.738301,120.380519 477.779704,120.380519 C463.821107,120.380519 452.505428,109.009134 452.505428,94.9818182 C452.505428,85.9077358 457.322677,77.5229377 465.142565,72.9858964 C472.962454,68.448855 482.596954,68.448855 490.416842,72.9858964 C498.23673,77.5229377 503.053979,85.9077358 503.053979,94.9818182 L503.053979,94.9818182 Z M456.820548,94.9818182 C456.601323,102.727793 460.588279,109.98154 467.229485,113.919524 C473.87069,117.857507 482.116805,117.857507 488.75801,113.919524 C495.399216,109.98154 499.386172,102.727793 499.166947,94.9818182 C499.386172,87.2358435 495.399216,79.9820959 488.75801,76.0441125 C482.116805,72.1061291 473.87069,72.1061291 467.229485,76.0441125 C460.588279,79.9820959 456.601323,87.2358435 456.820548,94.9818182 Z M158.323817,94.9818182 C158.543042,102.727793 154.556086,109.98154 147.914881,113.919524 C141.273675,117.857507 133.02756,117.857507 126.386355,113.919524 C119.745149,109.98154 115.758194,102.727793 115.977419,94.9818182 L115.977419,69.6175325 L111.86778,69.6175325 L111.86778,94.9818182 C111.86778,109.009134 123.183459,120.380519 137.142056,120.380519 C151.100653,120.380519 162.416332,109.009134 162.416332,94.9818182 L162.416332,69.6175325 L158.323817,69.6175325 L158.323817,94.9818182 Z M294.0275,94.9818182 C294.132103,108.861968 283.04441,120.21201 269.232682,120.363312 L252.640017,120.363312 L252.640017,69.6175325 L269.232682,69.6175325 C283.03768,69.7688292 294.122623,81.1083623 294.0275,94.9818182 Z M256.903767,115.992532 L269.232682,115.992532 C280.779732,115.992532 290.140467,106.585715 290.140467,94.9818182 C290.140467,83.3779211 280.779732,73.9711039 269.232682,73.9711039 L256.903767,73.9711039 L256.903767,115.992532 Z M566.890362,69.6175325 L566.890362,113.411364 L527.386463,69.6175325 L523.961765,69.6175325 L523.961765,120.191234 L528.071403,120.191234 L528.071403,76.6038961 L567.575301,120.363312 L571,120.363312 L571,69.6175325 L566.890362,69.6175325 Z" id="Shape"></path>
        </g>
    </g>
</svg>

<svg width="571" height="121" xmlns="http://www.w3.org/2000/svg"><g fill="#FFF" fill-rule="nonzero"><path d="M60.346 0l3.415 2.245L31.83 51.657 0 2.245 3.415 0 31.83 44.099 60.346 0zm20.491 51.177h4.098V.806h-4.098v50.371zM114.22.806h-4.08v50.371h25.613v-4.182h-21.345V.805h-.188zm93.132 4.181h25.99V.806h-25.99v4.181zM294.626 0L259.81 23.995V.805h-4.098v50.372h4.098V28.005L294.626 52 297 48.47 264.214 25.93 297 3.394 294.626 0zm-87.274 28.16h25.99v-4.182h-25.99v4.182zm0 23.017h25.99v-4.182h-25.99v4.182zM184.419 44.1a20.903 20.903 0 01-21.769.937c-6.861-3.793-11.044-11.108-10.846-18.967-.095-11.774 9.308-21.41 21.038-21.561a19.893 19.893 0 0111.577 3.53l.956.652 2.203-3.548-.94-.634a24.559 24.559 0 00-13.66-4.182c-14.013.16-25.27 11.642-25.204 25.708-.057 14.062 11.195 25.54 25.204 25.709a24.695 24.695 0 0013.66-4.182l.94-.651-2.203-3.548-.956.737zM331.956 68l26.541 51.056-3.63 1.944-22.911-43.949L309.011 121l-3.63-1.944L331.955 68zm95.583 52.191h4.11V69.618h-4.11v50.573zm-64.778-46.375h21.49v46.461h4.11v-46.46h21.49v-4.2h-47.244v4.2h.154zm-136.183 39.578L186.92 69.618h-3.425v50.573h4.11V76.604l39.487 43.794h3.424v-50.78h-3.938v43.776zM0 120.191h4.11v-23.11h21.815v-4.199H4.11V73.816h28.288v-4.198H0v50.573zm94.796-25.21c0 14.028-11.316 25.4-25.275 25.4-13.958 0-25.274-11.372-25.274-25.4 0-14.026 11.316-25.398 25.274-25.398 13.959 0 25.275 11.372 25.275 25.399zm-4.093 0c.22-7.745-3.768-14.999-10.409-18.937a21.092 21.092 0 00-21.528 0c-6.642 3.938-10.628 11.192-10.41 18.938-.218 7.746 3.768 15 10.41 18.938a21.092 21.092 0 0021.528 0c6.641-3.938 10.628-11.192 10.41-18.938zm412.351 0c0 14.028-11.316 25.4-25.274 25.4-13.959 0-25.275-11.372-25.275-25.4 0-9.073 4.818-17.458 12.638-21.995a25.167 25.167 0 0125.274 0c7.82 4.537 12.637 12.922 12.637 21.996zm-46.233 0c-.22 7.747 3.767 15 10.408 18.939a21.092 21.092 0 0021.529 0c6.641-3.938 10.628-11.192 10.409-18.938.22-7.746-3.768-15-10.409-18.938a21.092 21.092 0 00-21.529 0c-6.64 3.938-10.628 11.192-10.408 18.938zm-298.497 0c.219 7.747-3.768 15-10.41 18.939a21.092 21.092 0 01-21.528 0c-6.64-3.938-10.628-11.192-10.409-18.938V69.618h-4.11v25.364c0 14.027 11.316 25.399 25.275 25.399 13.959 0 25.274-11.372 25.274-25.4V69.619h-4.092v25.364zm135.703 0c.105 13.881-10.983 25.231-24.794 25.382H252.64V69.618h16.593c13.805.15 24.89 11.49 24.794 25.364zm-37.123 21.012h12.329c11.547 0 20.907-9.407 20.907-21.011s-9.36-21.01-20.907-21.01h-12.33v42.02zM566.89 69.618v43.793l-39.504-43.793h-3.424v50.573h4.11V76.604l39.503 43.76H571V69.617h-4.11z"/></g></svg>
